icons/svg/shopping/gas.svg

<?xml version="1.0" encoding="UTF-8" standalone="no"?>
<!-- Created with Inkscape (http://www.inkscape.org/) -->

<svg
   xmlns:dc="http://purl.org/dc/elements/1.1/"
   xmlns:cc="http://creativecommons.org/ns#"
   xmlns:rdf="http://www.w3.org/1999/02/22-rdf-syntax-ns#"
   xmlns:svg="http://www.w3.org/2000/svg"
   xmlns="http://www.w3.org/2000/svg"
   xmlns:sodipodi="http://sodipodi.sourceforge.net/DTD/sodipodi-0.dtd"
   xmlns:inkscape="http://www.inkscape.org/namespaces/inkscape"
   version="1.0"
   width="580"
   height="580"
   id="svg2"
   sodipodi:version="0.32"
   inkscape:version="0.48.4 r9939"
   sodipodi:docname="frame.svg"
   inkscape:output_extension="org.inkscape.output.svg.inkscape">
  <metadata
     id="metadata10">
    <rdf:RDF>
      <cc:Work
         rdf:about="">
        <dc:format>image/svg+xml</dc:format>
        <dc:type
           rdf:resource="http://purl.org/dc/dcmitype/StillImage" />
        <cc:license
           rdf:resource="http://web.resource.org/cc/PublicDomain" />
        <dc:language>en</dc:language>
        <dc:title></dc:title>
      </cc:Work>
    </rdf:RDF>
  </metadata>
  <sodipodi:namedview
     inkscape:window-height="739"
     inkscape:window-width="1332"
     inkscape:pageshadow="2"
     inkscape:pageopacity="0.0"
     guidetolerance="10.0"
     gridtolerance="10.0"
     objecttolerance="10.0"
     borderopacity="1.0"
     bordercolor="#666666"
     pagecolor="#ffffff"
     id="base"
     showgrid="false"
     inkscape:zoom="0.25000001"
     inkscape:cx="213.67241"
     inkscape:cy="127.34969"
     inkscape:window-x="34"
     inkscape:window-y="1024"
     inkscape:current-layer="svg2"
     inkscape:window-maximized="1" />
  <defs
     id="defs4">
    <clipPath
       id="clipoutline2"
       clipPathUnits="userSpaceOnUse">
      <path
         d="M 55.8,12 L 56.56,12.16 C 65.4,9.22 85.24,20.8 80.82,31.12 C 79.7,32.74 79.89,35.62 81.24,37.43 L 56.43,62.25 C 55.04,60.86 51.95,60.89 50.53,62.25 L 9.5,101.63 C 5.76,105.22 8.7,108.27 10.28,109.88 L 17.64,117.24 C 19.25,118.84 23.5,121 26.52,117.8 L 65.24,76.99 C 66.59,75.57 66.6,72.52 65.24,71.12 C 65.24,71.12 65.25,71.1 65.24,71.1 L 90.15,46.2 C 92.78,48.57 95.263827,48.774854 97.62,48.13 C 102.17057,46.884568 104.70725,51.336643 107.43,54.59 L 106.2,55.8 C 104.38,57.64 104.55,60.74 106.59,62.78 C 108.63,64.82 111.74,64.99 113.56,63.17 L 121.7,55.04 C 123.52,53.2 123.35,50.1 121.3,48.07 C 119.46,46.22 116.79,45.98 114.93,47.3 C 109.35,41.04 112.28,40.1 104.92,31.95 L 91.13,17.86 C 81.2,8.12 68.3,8.13 55.8,12 z"
         id="outline2" />
    </clipPath>
    <clipPath
       id="clipoutline1"
       clipPathUnits="userSpaceOnUse">
      <path
         d="M 22.42,17.2 L 35.38,30.15 L 32.88,38.93 L 24.1,41.43 L 11.14,28.47 L 5.28,34.33 L 20.17,55.79 L 37.73,52.45 L 99.36,118.07 C 108.8,127.58 121.53,113.32 112.7,105.2 L 46.85,42.92 L 50.86,25.16 L 28.72,10.89 L 22.42,17.2 z M 103.48,109.17 C 105.16,107.49 107.88,107.49 109.56,109.17 C 111.24,110.85 111.24,113.57 109.56,115.25 C 107.88,116.92 105.16,116.92 103.48,115.25 C 101.8,113.57 101.8,110.85 103.48,109.17 z"
         id="outline1" />
    </clipPath>
    <inkscape:perspective
       sodipodi:type="inkscape:persp3d"
       inkscape:vp_x="0 : 290 : 1"
       inkscape:vp_y="0 : 1000 : 0"
       inkscape:vp_z="580 : 290 : 1"
       inkscape:persp3d-origin="290 : 193.33333 : 1"
       id="perspective12" />
    <style
       type="text/css"
       id="style6">
   
    .fil0 {fill:#EF7900}
   
  </style>
    <inkscape:perspective
       id="perspective6807"
       inkscape:persp3d-origin="29.116032 : 19.410688 : 1"
       inkscape:vp_z="58.232063 : 29.116032 : 1"
       inkscape:vp_y="0 : 1000 : 0"
       inkscape:vp_x="0 : 29.116032 : 1"
       sodipodi:type="inkscape:persp3d" />
    <inkscape:perspective
       id="perspective6954"
       inkscape:persp3d-origin="290 : 193.33333 : 1"
       inkscape:vp_z="580 : 290 : 1"
       inkscape:vp_y="0 : 1000 : 0"
       inkscape:vp_x="0 : 290 : 1"
       sodipodi:type="inkscape:persp3d" />
    <marker
       viewBox="0 0 10 10"
       refY="5"
       refX="10"
       orient="auto"
       markerWidth="4"
       markerUnits="strokeWidth"
       markerHeight="3"
       id="ArrowStart">
      <path
         id="path2295"
         d="M 10 0 L 0 5 L 10 10 z" />
    </marker>
    <marker
       viewBox="0 0 10 10"
       refY="5"
       refX="0"
       orient="auto"
       markerWidth="4"
       markerUnits="strokeWidth"
       markerHeight="3"
       id="ArrowEnd">
      <path
         id="path2292"
         d="M 0 0 L 10 5 L 0 10 z" />
    </marker>
    <inkscape:perspective
       id="perspective7597"
       inkscape:persp3d-origin="178.5405 : 158.483 : 1"
       inkscape:vp_z="357.08099 : 237.7245 : 1"
       inkscape:vp_y="0 : 1000 : 0"
       inkscape:vp_x="0 : 237.7245 : 1"
       sodipodi:type="inkscape:persp3d" />
  </defs>
  <g
     id="g1327"
     transform="translate(0.5,-0.5)">
    <path
       d="M 66.275,1.768 C 24.94,1.768 1.704,23.139 1.704,66.804 l 0,450.123 c 0,40.844 20.894,62.229 62.192,62.229 l 452.024,0 c 41.307,0 62.229,-20.316 62.229,-62.229 l 0,-450.123 c 0,-42.601 -20.922,-65.036 -63.522,-65.036 -0.003,0 -448.494,-0.143 -448.352,0 z"
       style="fill:#111111;stroke:#eeeeee;stroke-width:3.40799999"
       id="path1329"
       inkscape:connector-curvature="0" />
  </g>
  <g
     id="g2319"
     transform="translate(879.29125,36.805119)">
    <path
       id="path2323"
       style="fill:#ffffff;stroke:none"
       d="" />
  </g>
  <g
     id="g2325"
     transform="translate(879.29125,36.805119)">
    <path
       id="path2329"
       style="fill:#ffffff;stroke:none"
       d="" />
  </g>
  <path
     d="m 222.40641,149.83887 c 0,-52.36001 -46.36912,-52.64227 -46.36912,-52.64227 L 168.6499,63.30001 c 0,-9.761008 -3.69795,-10.799995 -9.24482,-10.799995 l -9.24481,0 c -5.54686,0 -9.24465,1.038987 -9.24465,10.799995 l -7.15515,33.89659 c 0,0 -46.601598,0.28322 -46.601598,52.64227 0,96.62395 0,251.90205 0,340.46113 0,19.04 8.11485,35.7 18.934558,35.7 l 98.73098,0 c 10.81971,0 18.93456,-16.66 17.582,-33.32 0,-97.97888 -0.2975,-259.20841 0,-342.84113 z"
     id="path5"
     inkscape:connector-curvature="0"
     sodipodi:nodetypes="cccssccccsscc"
     style="fill:#ffffff;fill-opacity:1;stroke:none" />
  <rect
     style="color:#000000;fill:#ffffff;fill-opacity:1;fill-rule:evenodd;stroke:none;stroke-width:1;marker:none;visibility:visible;display:inline;overflow:visible;enable-background:accumulate"
     id="rect3788"
     width="40.305088"
     height="20.152542"
     x="134.70384"
     y="52.144798"
     ry="5.3033009" />
  <path
     inkscape:connector-curvature="0"
     d="m 386.39057,452.91585 c -0.6961,0 -1.4003,-0.089 -2.0964,-0.27521 -0.9632,-0.25902 -96.6525,-26.87264 -96.6525,-111.42435 0,-132.19399 149.4913,-208.05256 155.8533,-211.22547 2.841,-1.40839 6.2163,-1.04415 8.6769,0.93892 2.4607,1.97497 3.5453,5.21264 2.7763,8.27224 -8.8712,35.48484 10.312,63.65256 32.5304,96.27206 21.134,31.05734 42.9882,63.15881 42.9882,105.74225 0,49.08305 -32.2391,95.87545 -76.676,111.25437 -3.3187,1.16557 -7.0177,0.0243 -9.1303,-2.81677 -2.1125,-2.82486 -2.153,-6.68578 -0.097,-9.55922 0.2105,-0.28329 21.1501,-29.80273 21.1501,-52.74161 0,-16.74684 -5.0104,-29.61657 -10.8139,-44.52603 -3.2052,-8.24796 -6.6614,-17.12727 -9.3244,-27.22879 -3.5452,10.66811 -5.3017,21.87854 -5.7954,27.17213 -0.2752,2.97056 -2.1774,5.56069 -4.9294,6.71006 -2.7358,1.16557 -5.925,0.6961 -8.2398,-1.18174 -1.4489,-1.18175 -32.4415,-27.44734 -21.5467,-101.7842 -18.0743,17.04633 -44.5746,49.82772 -44.5746,95.51122 0,51.04993 26.8807,90.3876 31.5916,96.88722 1.5783,1.48123 2.5658,3.57762 2.5658,5.90874 0,4.47608 -3.6262,8.09418 -8.0942,8.09418 -0.081,-0.008 -0.1133,0 -0.1619,0 z"
     id="path5-5"
     style="fill:#ffffff;fill-opacity:1;stroke:none" />
</svg>

<svg width="580" height="580" viewBox="0 0 580 580" fill="none" xmlns="http://www.w3.org/2000/svg">
<g clip-path="url(#clip0)">
<path d="M66.7751 1.26766C25.4401 1.26766 2.2041 22.6387 2.2041 66.3037V516.427C2.2041 557.271 23.0981 578.656 64.3961 578.656H516.42C557.727 578.656 578.649 558.34 578.649 516.427V66.3037C578.649 23.7027 557.727 1.26766 515.127 1.26766C515.124 1.26766 66.6331 1.12466 66.7751 1.26766V1.26766Z" fill="#111111" stroke="#EEEEEE" stroke-width="3.408"/>
<path d="M222.406 149.839C222.406 97.4788 176.037 97.1966 176.037 97.1966L168.65 63.3C168.65 53.539 164.952 52.5 159.405 52.5H150.16C144.613 52.5 140.915 53.539 140.915 63.3L133.76 97.1966C133.76 97.1966 87.1587 97.4798 87.1587 149.839C87.1587 246.463 87.1587 401.741 87.1587 490.3C87.1587 509.34 95.2735 526 106.093 526H204.824C215.644 526 223.759 509.34 222.406 492.68C222.406 394.701 222.109 233.472 222.406 149.839V149.839Z" fill="white"/>
<path d="M169.705 52.1445H140.007C137.078 52.1445 134.704 54.5189 134.704 57.4478V66.9938C134.704 69.9227 137.078 72.2971 140.007 72.2971H169.705C172.634 72.2971 175.009 69.9227 175.009 66.9938V57.4478C175.009 54.5189 172.634 52.1445 169.705 52.1445Z" fill="white"/>
<path d="M386.391 452.916C385.694 452.916 384.99 452.827 384.294 452.641C383.331 452.382 287.642 425.768 287.642 341.216C287.642 209.022 437.133 133.164 443.495 129.991C446.336 128.582 449.711 128.947 452.172 130.93C454.633 132.905 455.717 136.142 454.948 139.202C446.077 174.687 465.26 202.854 487.479 235.474C508.613 266.531 530.467 298.633 530.467 341.216C530.467 390.299 498.228 437.092 453.791 452.471C450.472 453.636 446.773 452.495 444.66 449.654C442.548 446.829 442.507 442.968 444.563 440.095C444.774 439.811 465.714 410.292 465.714 387.353C465.714 370.606 460.703 357.736 454.9 342.827C451.694 334.579 448.238 325.7 445.575 315.598C442.03 326.266 440.274 337.477 439.78 342.77C439.505 345.741 437.602 348.331 434.85 349.48C432.115 350.646 428.925 350.176 426.611 348.299C425.162 347.117 394.169 320.851 405.064 246.514C386.99 263.561 360.489 296.342 360.489 342.026C360.489 393.076 387.37 432.413 392.081 438.913C393.659 440.394 394.647 442.49 394.647 444.822C394.647 449.298 391.021 452.916 386.553 452.916C386.472 452.908 386.439 452.916 386.391 452.916H386.391Z" fill="white"/>
</g>
<defs>
<clipPath id="clip0">
<path d="M0 0H580V580H0V0Z" fill="white"/>
</clipPath>
</defs>
</svg>
